X:119
T: SPINN SPINNE MEINE LIEBE TOCHTER
N: Z0119
O: Europa, Mitteleuropa, Deutschland
R: Erzaehlung, lustige Romanze
M: 3/4
L: 1/16
K: D
A,4 | B,3A,G,3A,B,3C | D4A,4
A,4 | B,3A,G,3A,B,3C | D4z4
F4 | E2D2C2B,2A,2^G,2 | A,4A,4
F4 | E2D2C2B,2A,2^G,2 | A,4z4
E,4 | F,3E,D,3E,F,3^G, | A,4E,4
E,4 | F,3E,D,3E,F,3^G, | A,4E,4
A,4 | B,3A,G,3A,B,3B, | D3A,D3E
F3G | A3GF4E4 | D4z4

@@@ Tune index: 9877
